src/modules/75-cf/images/upload.svg

<svg fill="none" viewBox="0 0 99 99" xmlns="http://www.w3.org/2000/svg"><circle cx="49.5" cy="49.5" fill="#f6f6f6" r="49.5"/><path clip-rule="evenodd" d="m63.5674 61.8684c0 1.3267-1.088 2.4018-2.4249 2.4018h-3.6425v2.407h3.6425c2.6817 0 4.8561-2.1526 4.8575-4.8088v-24.057c0-2.6573-2.1748-4.8114-4.8575-4.8114h-24.2876c-1.2879.0003-2.523.5074-3.4335 1.4098-.9104.9023-1.4217 2.1259-1.4214 3.4016v24.057c0 1.2756.5117 2.4989 1.4224 3.4008.9108.9018 2.146 1.4083 3.4338 1.408h3.6438v-2.407h-3.6451c-.6435.0007-1.261-.252-1.7163-.7026-.4553-.4505-.7111-1.0618-.7111-1.6992v-24.057c-.001-.6382.2543-1.2507.7097-1.7022s1.0734-.7051 1.7177-.7048h24.2876c1.3404.0021 2.4256 1.0794 2.4249 2.407zm-15.7863-17.5452v21.4733.0013c.0022.6651.5474 1.2029 1.2189 1.2022.6697 0 1.2086-.5388 1.2086-1.2022v-21.4746l6.3689 6.3071c.4797.4373 1.2222.4222 1.6834-.0342.4612-.4565.477-1.1919.0359-1.6674l-8.3782-8.296c-.2432-.2383-.5771-.363-.9186-.3432-.3428-.0212-.6785.1036-.9225.3432l-8.3781 8.2947c-.4415.4752-.4262 1.2106.0346 1.6674s1.2033.4725 1.6834.0355z" fill="#25a6f7" fill-rule="evenodd"/></svg>

<svg viewBox="0 0 99 99" fill="none" xmlns="http://www.w3.org/2000/svg">
<circle cx="49.5" cy="49.5" r="49.5" fill="#F6F6F6"/>
<path fill-rule="evenodd" clip-rule="evenodd" d="M63.5674 61.8684C63.5674 63.1951 62.4794 64.2702 61.1425 64.2702H57.5V66.6772H61.1425C63.8242 66.6772 65.9986 64.5246 66 61.8684V37.8114C66 35.1541 63.8252 33 61.1425 33H36.8549C35.567 33.0003 34.3319 33.5074 33.4214 34.4098C32.511 35.3121 31.9997 36.5357 32 37.8114V61.8684C32 63.144 32.5117 64.3673 33.4224 65.2692C34.3332 66.171 35.5684 66.6775 36.8562 66.6772H40.5V64.2702H36.8549C36.2114 64.2709 35.5939 64.0182 35.1386 63.5676C34.6833 63.1171 34.4275 62.5058 34.4275 61.8684V37.8114C34.4265 37.1732 34.6818 36.5607 35.1372 36.1092C35.5926 35.6577 36.2106 35.4041 36.8549 35.4044H61.1425C62.4829 35.4065 63.5681 36.4838 63.5674 37.8114V61.8684ZM47.7811 44.3232V65.7965V65.7978C47.7833 66.4629 48.3285 67.0007 49 67C49.6697 67 50.2086 66.4612 50.2086 65.7978V44.3232L56.5775 50.6303C57.0572 51.0676 57.7997 51.0525 58.2609 50.5961C58.7221 50.1396 58.7379 49.4042 58.2968 48.9287L49.9186 40.6327C49.6754 40.3944 49.3415 40.2697 49 40.2895C48.6572 40.2683 48.3215 40.3931 48.0775 40.6327L39.6994 48.9274C39.2579 49.4026 39.2732 50.138 39.734 50.5948C40.1948 51.0516 40.9373 51.0673 41.4174 50.6303L47.7811 44.3232Z" fill="#25A6F7"/>
</svg>
